X: 54
%
U:~=!turn!
T: Bothan airidh'm Braighe Raineach
T: The Shieling in the Braes of Rannoch
C: From Capt. Fraser's Collection
O:Scotland
B:Keith Norman MacDonald : "The Skye collection of the best reels & strathspeys extant" : 1887
Z:Ralph Palmer
R:Air
M:3/4
L:1/8
K:Gm
"Slow and pathetic." !p! G>A | d2 f2 =e>c | (d2 c)z G>A | d2 f2 =e>d | (c2 F) z c>A | c2 d2 c>d | (F2 G) z {/A}d>c | {/B}A2 F2 G2 | L(A2 G) z ||
d>^f | g2 b2 a>g | (f2 d) z d>^f | g2 b2 a>g | (g2 d)z f>=e | (d2 c)z {/B}A>G | (F2 A)z {/A}d>c | {/B}A2 F2 G2 | (LA2 G)z |]


